public/vrpano.svg

<svg width="20" height="17" viewBox="0 0 20 17" fill="none" xmlns="http://www.w3.org/2000/svg">
<path d="M18.69 0.0498188C16.66 0.729819 13.86 1.49982 10 1.49982C6.11004 1.49982 3.05004 0.659819 1.31004 0.0698188C1.15996 0.0192549 0.999959 0.00532139 0.843396 0.0291813C0.686833 0.0530412 0.538248 0.114002 0.410041 0.206977C0.281834 0.299951 0.177724 0.422242 0.106401 0.563643C0.0350777 0.705044 -0.00139033 0.861454 4.05371e-05 1.01982V14.9998C4.05371e-05 15.6798 0.66004 16.1698 1.31004 15.9498C3.36004 15.2598 6.10004 14.4998 10 14.4998C13.87 14.4998 16.66 15.2598 18.69 15.9498C18.8401 15.999 18.9997 16.0119 19.1557 15.9874C19.3117 15.963 19.4597 15.9019 19.5875 15.8092C19.7154 15.7165 19.8194 15.5948 19.8911 15.4541C19.9628 15.3134 20.0001 15.1577 20 14.9998V0.999819C20 0.319819 19.34 -0.160181 18.69 0.0498188ZM10 10.9998C7.66004 10.9998 5.48004 11.1498 3.48004 11.4098L7.17004 6.98982L9.17004 9.38982L12 5.99982L16.51 11.3998C14.52 11.1498 12.3 10.9998 10 10.9998Z" fill="white"/>
</svg>

<svg xmlns="http://www.w3.org/2000/svg" width="20" height="17" fill="none"><path fill="#fff" d="M18.69.05C16.66.73 13.86 1.5 10 1.5 6.11 1.5 3.05.66 1.31.07A.993.993 0 0 0 0 1.02V15c0 .68.66 1.17 1.31.95C3.36 15.26 6.1 14.5 10 14.5c3.87 0 6.66.76 8.69 1.45A.998.998 0 0 0 20 15V1c0-.68-.66-1.16-1.31-.95ZM10 11c-2.34 0-4.52.15-6.52.41l3.69-4.42 2 2.4L12 6l4.51 5.4c-1.99-.25-4.21-.4-6.51-.4Z"/></svg>
